X: 32
T:Strathbogie Toast
M:4/4
L:1/8
C:Wm. Marshall
R:Reel
K:Gm
"Gm"dg a/g/^f g2 d=f|"F"cdfg "Dm"dfcf|"Gm"dg a/g/^f g2 dg|"F"=fdcA "Gm"G
2 G2|!
"Gm"dg a/g/^f g2 d=f|"F"cdfg "Dm"dfcf|"Gm"dfga bagf|"F"dfcA "Gm" G2 Gg|
